X:1
T:[ID 6-93a]
T:[ID 6-93a]
T:Bezeichnung standardisiert: Blae Bl\"omken; Blae Blomken In dieser Quelle auch als: Blae Bl\"omken
T:Urheber unbekannt Datum in der hier transkribierten schriftlichen Quelle: 1792
C:Urheber unbekannt
C:Datum in der hier transkribierten schriftlichen Quelle: 1792
L:1/8
M:none
K:F
V:1 treble 
V:1
 GABc | d2 G2 | d^cde | f2 c2 | ffff | gggf | (3fed (3ed^c | d2 D2 :: g2 de/f/ | g2 d2 | %10
 (3ded (3cdc | d2 A2 | (3BAB (3cBc | dddc | (3BAG (3AG^F | G2 G,2 :| %16

